X:1
T: Sir Archibald Campbell's Jig
C:
R:Jig
Q:180
K:Bb
M:6/8
L:1/16
|:F2|B6 d2B2d2|f2d2f2 b2f2d2|B6 d2B2d2|c3AF2 F4A2|
B4c2 d2B2d2|f2d2f2 b2a2g2|f2e2d2 c2f2e2|d2B2B2 B4:|
|:F2|B4F2 D2F2B2|d2B2d2 f2d2f2|B2F2B2 d2B2d2|c2A2F2 F4A2|
|1B4c2 d2e2f2|g2f2g2 b2f2e2|d2f2B2 c2e2A2|B6B4:|
|2B2B,2B2 c2C2c2|d2B2a2 b2f2e2|d2f2d2 c2e2A2|B2F2D2 B,4||
